dist/img/sprites/icon_telegram-black.svg

<svg width="44" height="44" viewBox="0 0 44 44" fill="none" xmlns="http://www.w3.org/2000/svg">
<path d="M21.9998 3.66669C11.8798 3.66669 3.6665 11.88 3.6665 22C3.6665 32.12 11.8798 40.3334 21.9998 40.3334C32.1198 40.3334 40.3332 32.12 40.3332 22C40.3332 11.88 32.1198 3.66669 21.9998 3.66669ZM30.5065 16.1334C30.2315 19.03 29.0398 26.07 28.4348 29.315C28.1782 30.69 27.6648 31.1484 27.1882 31.2034C26.1248 31.295 25.3182 30.5067 24.2915 29.8284C22.6782 28.765 21.7615 28.105 20.2032 27.0784C18.3882 25.8867 19.5615 25.2267 20.6065 24.1634C20.8815 23.8884 25.5748 19.6167 25.6665 19.2317C25.6792 19.1734 25.6775 19.1128 25.6616 19.0553C25.6456 18.9978 25.6158 18.9451 25.5748 18.9017C25.4648 18.81 25.3182 18.8467 25.1898 18.865C25.0248 18.9017 22.4582 20.6067 17.4532 23.98C16.7198 24.475 16.0598 24.7317 15.4732 24.7134C14.8132 24.695 13.5665 24.3467 12.6315 24.035C11.4765 23.6684 10.5782 23.4667 10.6515 22.825C10.6882 22.495 11.1465 22.165 12.0082 21.8167C17.3615 19.4884 20.9182 17.9484 22.6965 17.215C27.7932 15.0884 28.8382 14.7217 29.5348 14.7217C29.6815 14.7217 30.0298 14.7584 30.2498 14.9417C30.4332 15.0884 30.4882 15.29 30.5065 15.4367C30.4882 15.5467 30.5248 15.8767 30.5065 16.1334Z" fill="#23272B"/>
</svg>

<svg width="44" height="44" viewBox="0 0 44 44" fill="none" xmlns="http://www.w3.org/2000/svg"><path d="M22 3.667C11.88 3.667 3.666 11.88 3.666 22S11.88 40.333 22 40.333 40.333 32.12 40.333 22 32.12 3.667 22 3.667zm8.506 12.466c-.274 2.897-1.466 9.937-2.071 13.182-.257 1.375-.77 1.833-1.247 1.888-1.063.092-1.87-.696-2.896-1.375-1.614-1.063-2.53-1.723-4.089-2.75-1.815-1.191-.642-1.851.404-2.915.274-.275 4.968-4.546 5.06-4.931a.368.368 0 00-.092-.33c-.11-.092-.257-.055-.385-.037-.165.037-2.732 1.742-7.737 5.115-.733.495-1.393.752-1.98.733-.66-.018-1.907-.366-2.841-.678-1.155-.367-2.054-.568-1.98-1.21.036-.33.495-.66 1.356-1.008 5.354-2.329 8.91-3.869 10.689-4.602 5.096-2.127 6.141-2.493 6.838-2.493.146 0 .495.036.715.22a.728.728 0 01.256.495c-.018.11.019.44 0 .696z" fill="#23272B"/></svg>
